X:1
T:Through the Valley
T:George Frederick Root
T:Through the Valley
T:Public Domain
T:Public Domain
C:George Frederick Root
Z:Public Domain
%%score ( 1 2 ) ( 3 4 )
L:1/8
M:6/8
K:D
V:1 treble 
V:2 treble 
V:3 bass 
V:4 bass 
V:1
 [DF]2 [EG] [^E^G]2 [FA] | [GB]2 [FA] [FA] [DF]2 | [Fd]2 [Ac] [GB]2 [FA] | [EG]2 [DF] [EG]3 | %4
w: 1.~Thro’ the val- ley|of the sha- dow,|Safe up- on the|o- ther side,|
w: 2.~There are depths we|can- not fa- thom,|There are heights we|can- not reach;|
w: 3.~Ve- ry pre- cious|is the tri- al|That u- nit- eth|us to Thee;|
 [CE]2 [DF] [EG]2 [FA] | [GB]2 [FA] [FA] [EG]2 | [Ac]2 [GB] [FA]2 [EG] | [DF]2 [CE] [DF]3 || %8
w: All our wea- ry|con- flict o- ver,|There with Je- sus|sa- tis- fied.|
w: Lord, Thou know- est,|on- ly show us,|Ev- ery les- son|Thou wouldst teach.|
w: Se- ver e’en the|dear- est un- ion,|So Thy glo- ry|we may see.|
"^Refrain" F2 F [FB]2 [DF] | C2 C C2 C | C2 C [CA]2 [CE] | D2 D [FA]3 | F2 F [Fd]2 [Fd] | %13
w: |||||
w: Thro’ the val- ley|the sha- dow, Safe|the o- ther side,|our wea- ry|flict o- ver, There|
w: |||||
 G2 G G G2 | F2 F G2 G | F2 G [Fd]3 |] %16
w: |||
w: Je- sus sa- tis-|||
w: |||
V:2
 x6 | x6 | x6 | x6 | x6 | x6 | x6 | x6 || A3 x3 | A3 E3 | G3 x3 | F3 x3 | d3- x3 | d3 B3 | %14
w: ||||||||||||||
w: ||||||||of|up- on|All|con-|with|* fied.|
 [Ad]3 c3 | d3- x3 |] %16
w: ||
w: ||
V:3
 [D,A,]2 [D,A,] [D,D]2 [D,D] | [D,D]2 [D,D] [D,D] [D,A,]2 | [D,A,]2 [D,A,] [D,D]2 [D,D] | %3
 [C,A,]2 [D,A,] [A,,A,]3 | [A,,A,]2 [A,,A,] [A,,A,]2 [A,,A,] | [A,,A,]2 [A,,A,] [A,,A,] [A,,A,]2 | %6
 [A,,A,]2 [A,,A,] [A,,A,]2 [A,,A,] | [A,,A,]2 [A,,A,] [D,A,]3 || [D,D]2 [D,D] [D,D]2 [D,A,] | %9
 [A,,A,]2 [A,,A,] [A,,A,]2 [A,,A,] | [A,,A,]2 [A,,A,] [A,,A,]2 [A,,A,] | [D,A,]2 [D,A,] [D,D]3 | %12
 [D,A,]2 [D,A,] [D,A,]2 [D,A,] | [G,B,]2 [G,B,] [G,D] [G,D]2 | [A,D]2 A, [A,,A,]2 [A,,A,] | %15
 [D,A,]2 [D,B,] [D,A,]3 |] %16
V:4
 x6 | x6 | x6 | x6 | x6 | x6 | x6 | x6 || x6 | x6 | x6 | x6 | x6 | x6 | x2 A, x3 | x6 |] %16

